svgs/light/object-union.svg

<svg xmlns="http://www.w3.org/2000/svg" viewBox="0 0 512 512"><!--! Font Awesome Pro 6.6.0 by @fontawesome - https://fontawesome.com License - https://fontawesome.com/license (Commercial License) Copyright 2024 Fonticons, Inc. --><path d="M160 320c17.7 0 32 14.3 32 32l0 96c0 17.7 14.3 32 32 32l224 0c17.7 0 32-14.3 32-32l0-224c0-17.7-14.3-32-32-32l-96 0c-17.7 0-32-14.3-32-32l0-96c0-17.7-14.3-32-32-32L64 32C46.3 32 32 46.3 32 64l0 224c0 17.7 14.3 32 32 32l96 0zm-32 32l-64 0c-35.3 0-64-28.7-64-64L0 64C0 28.7 28.7 0 64 0L288 0c35.3 0 64 28.7 64 64l0 64 0 32 32 0 64 0c35.3 0 64 28.7 64 64l0 224c0 35.3-28.7 64-64 64l-224 0c-35.3 0-64-28.7-64-64l0-64 0-32-32 0z"/></svg>

<svg xmlns="http://www.w3.org/2000/svg" viewBox="0 0 512 512"><!--! Font Awesome Pro 6.5.2 by @fontawesome - https://fontawesome.com License - https://fontawesome.com/license (Commercial License) Copyright 2024 Fonticons, Inc. --><path d="M160 320c17.7 0 32 14.3 32 32v96c0 17.7 14.3 32 32 32H448c17.7 0 32-14.3 32-32V224c0-17.7-14.3-32-32-32H352c-17.7 0-32-14.3-32-32V64c0-17.7-14.3-32-32-32H64C46.3 32 32 46.3 32 64V288c0 17.7 14.3 32 32 32h96zm-32 32H64c-35.3 0-64-28.7-64-64V64C0 28.7 28.7 0 64 0H288c35.3 0 64 28.7 64 64v64 32h32 64c35.3 0 64 28.7 64 64V448c0 35.3-28.7 64-64 64H224c-35.3 0-64-28.7-64-64V384 352H128z"/></svg>
